icons/location.svg

<?xml version="1.0" encoding="UTF-8"?>
<svg width="14px" height="20px" viewBox="0 0 14 20" version="1.1" xmlns="http://www.w3.org/2000/svg" xmlns:xlink="http://www.w3.org/1999/xlink">
    <g stroke="none" stroke-width="1" fill="none" fill-rule="evenodd" fill-opacity="0.54">
        <g transform="translate(-94.000000, -289.000000)" fill="#000000">
            <g id="edit_location" transform="translate(94.000000, 289.000000)">
                <path d="M7,0 C3.14,0 0,3.14 0,7 C0,12.25 7,20 7,20 C7,20 14,12.25 14,7 C14,3.14 10.86,0 7,0 Z M5.44,10 L4,10 L4,8.56 L7.35,5.22 L8.78,6.65 L5.44,10 Z M9.89,5.55 L9.19,6.25 L7.75,4.81 L8.45,4.11 C8.52136681,4.03793788 8.61857924,3.99739484 8.72,3.99739484 C8.82142076,3.99739484 8.91863319,4.03793788 8.99,4.11 L9.89,5.01 C10.04,5.16 10.04,5.4 9.89,5.55 L9.89,5.55 Z" id="Shape"></path>
            </g>
        </g>
    </g>
</svg>

<svg width="14" height="20" xmlns="http://www.w3.org/2000/svg"><path d="M7 0C3.14 0 0 3.14 0 7c0 5.25 7 13 7 13s7-7.75 7-13c0-3.86-3.14-7-7-7zM5.44 10H4V8.56l3.35-3.34 1.43 1.43L5.44 10zm4.45-4.45l-.7.7-1.44-1.44.7-.7a.38.38 0 0 1 .54 0l.9.9c.15.15.15.39 0 .54z" fill="#000" fill-rule="evenodd" fill-opacity=".54"/></svg>
